X:1
T:The Connemara
R:hornpipe
M:4/4
L:1/8
K:G
|:B2BA G2GB|dBeB d2ef|gage dBGB|A2AB AGEG|
|BcBA GFGB|dBeB d2ef|gage dBAc|1 ~B2GF G2GA:|2 ~B2GF G3g|]
|:gfed efga|bagb a2ga|bgag (3efg dB|A2AB AGEG|
|BcBA GFGB|dBeB d2ef|gage dBAc|1 ~B2GF G3g:|2 ~B2GF G2GA|]